X: 1
T: Josephine's
M: 3/4
L: 1/4
R: waltz
K: Gmaj
D|DGA|Bdc|BAG|D2 E|C>CC|EGF|E3|D2 D|
|DGA|Bdc|BAG|D2 E|C>CC| EFG|A3-|ABc||
|:dBd|g2 f|e3|d2 B|ced|cBA|B>cB|ABc:||
|BAG|F2 G|G3|CDC|B,DG|FEF|G3-|G2 D||
